!!!OTL: Jinggang xiangcha jibeijing
!!!ARE: Asia, China,ÿJiangxi Suichuan
!! IV, 192
!!!SCT: C1954
!!!YEM: Copyright 1995, estate of Helmut Schaffrath.
**kern
*ICvox
*Ivox
*M2/4
*k[]
*C:
{8g
8e
8g
16g
16a
=1
8dd
16ee
16dd
8cc
8a
=2
8dd
16dd
16dd
16cc
16dd
16ee
16gg
=3
2dd}
=4
{8g
8e
8g
16g
16a
=5
16dd
16ee
16dd
16cc
16a
16cc
8a
=6
8g
16a
16cc
16a
16g
8e
=7
2d}
=8
{8g
8e
8g
16g
16a
=9
8dd
16ee
16dd
8cc
8a
=10
8dd
16ee
16dd
16cc
16dd
16a
16cc
=11
2dd}
=12
{8ee
8ee
8ee
16a
16cc
=13
8dd
8dd
8dd
16cc
16a
=14
8g
16a
16cc
16a
16g
8e
=15
2d}
==
!!!AGN: Xiaodiao, Chage
!!!AMT: simple duple
!!!AIN: vox
!!!EED: Helmut Schaffrath
!!!EEV: 1.0
*-
